X: 34848
T: Roaring Mary
R: reel
M: 4/4
K: Dmajor
AB|AFAB AFAf|{a}g2fe dBAF|ABde fdgf|{ef}e2ef A2AB|
AFAB AFAf|{a}g2fe dBAF|ABAF EDEF|D2DG FAAB||
AFAB AFAf|{a}g2fe dBAF|ABde fdgf|{ef}e2ef A2AB|
AFAB AFAf|{a}g2fe dBAF|AdAF EDEF|D2Ac defg||
afdf {a}geaf|{a}gfec dBAF|ABde fdgf|e^def =defg|
afdf {a}geaf|{a}gfec dBAF|AdAF EDEF|D2Ac defg||
afdf {a}geaf|{a}gfec dcBA|Bcde fdgf|e=deg fgab|
afdf {a}gfeg|fdBc dBAF|AdAF EDCE|DA,B,C D2FE||
DFAF DGBG|FGAc dcdA|Bcde fdgf|ecAF EDFE|
DFAF (3GGG BG|FABc dcdA|BGBd AGFE|(3DED CE D2FE||
DFAF DGBG|FABc dcdA|Bcde fdgf|ecAG FAEA|
DFAF (3GGG BG|FABc dcdA|BGBd AFEF|D2ag fgab||
agfa gfeg|fdBc dBAF|ABde fagf|e^deg fgab|
agfa (3gag (3fgf|edBc dBAF|AdAF EDEF|D2ag fgab||
agfa gfeg|fdBc dBAF|ABde fagf|e^deg fgab|
agfa (3gfg ba|gfec dcBA|BcdB AGFE|DA,B,C D2||

